X: 17202
T: Henry Reed's Schottische
R: barndance
M: 4/4
K: Cmajor
|:E>F|G>ce>c G2 c2|F>Ad>c A>F A2|G>Bd>e f2 B2|1 c>e (3dcA G2:|2 c2 e2 c2||
|:(3g^fg|a>ge>c G2 (3g^fg|a>gf>d A2 A2|G>Bd>e f2 B2|1 c>e (3dcA G2:|2 c2 e2 c2||
|:(3DEF|G>ce>c G2- G>c|F>Ad>c A2- A>F|G>Bd>e f2 B>d|1 (3c>ed (3cBA G2:|2 c2 c2 c2||
|:(3gag|e>f g>e c2 e2|d>e f2 A2 (3AEF|1 G>Bd>e f>ef>g|a2 g2 g2:|2 G>Bd>e f2 (3gab|c'2 c'2 c'2||

